src/general/components/img/tick.svg

<?xml version="1.0" encoding="UTF-8"?>
<svg width="22px" height="22px" viewBox="0 0 22 22" version="1.1" xmlns="http://www.w3.org/2000/svg" xmlns:xlink="http://www.w3.org/1999/xlink">
    <!-- Generator: Sketch 48.2 (47327) - http://www.bohemiancoding.com/sketch -->
    <title>Tick</title>
    <desc>Created with Sketch.</desc>
    <defs>
        <polygon id="path-1" points="7.52918175e-21 2.77777778e-05 7.52918175e-21 9.93402778 9.9325 9.93402778 9.9325 2.77777778e-05"></polygon>
    </defs>
    <g id="07_Edit_Profile_page" stroke="none" stroke-width="1" fill="none" fill-rule="evenodd" transform="translate(-200.000000, -111.000000)">
        <g id="Top-image" transform="translate(0.000000, 70.000000)">
            <g id="Tick" transform="translate(200.000000, 41.000000)">
                <circle id="Oval-2" fill="#FF1744" cx="11" cy="11" r="11"></circle>
                <g id="Page-1" transform="translate(6.000000, 6.000000)">
                    <mask id="mask-2" fill="white">
                        <use xlink:href="#path-1"></use>
                    </mask>
                    <g id="Clip-2"></g>
                    <path d="M9.60791667,1.11461111 L8.81625,0.322944444 C8.38555556,-0.107611111 7.67736111,-0.107611111 7.24680556,0.322944444 L0.969027778,6.61461111 C0.857916667,6.72558333 0.788472222,6.8785 0.774444444,7.01738889 L0.0105555556,9.57280556 C-0.0172222222,9.67016667 0.0105555556,9.78113889 0.08,9.85058333 C0.135694444,9.90627778 0.205138889,9.93405556 0.274583333,9.93405556 C0.302361111,9.93405556 0.33,9.93405556 0.357777778,9.92002778 L2.92722222,9.15613889 C3.08013889,9.14238889 3.21902778,9.07294444 3.33013889,8.96183333 L9.62180556,2.67016667 C10.0384722,2.2535 10.0384722,1.55905556 9.60791667,1.11461111" id="Fill-1" fill="#FFFFFF" mask="url(#mask-2)"></path>
                </g>
            </g>
        </g>
    </g>
</svg>

<svg height="22" viewBox="0 0 22 22" width="22" xmlns="http://www.w3.org/2000/svg" xmlns:xlink="http://www.w3.org/1999/xlink"><mask id="a" fill="#fff"><path d="m0 .00002778v9.934h9.9325v-9.934z" fill="#fff" fill-rule="evenodd"/></mask><g fill="none" fill-rule="evenodd"><circle cx="11" cy="11" fill="#ff1744" r="11"/><path d="m9.60791667 1.11461111-.79166667-.79166667c-.43069444-.43055555-1.13888889-.43055555-1.56944444 0l-6.27777778 6.29166667c-.11111111.11097222-.18055556.26388889-.19458334.40277778l-.76388888 2.55541667c-.02777778.09736111 0 .20833333.06944444.27777777.05569444.05569445.12513889.08347223.19458333.08347223.02777778 0 .05541667 0 .08319445-.01402778l2.56944444-.76388889c.15291667-.01375.29180556-.08319445.40291667-.19430556l6.29166667-6.29166666c.41666664-.41666667.41666664-1.11111111-.01388889-1.55555556" fill="#fff" mask="url(#a)" transform="translate(6 6)"/></g></svg>
